storage/app/icons/tabler/outline/barrel-off.svg

<!--
category: Design
tags: [beer, wine, fuel, tank, cask, barrel, off, disabled, inactive]
version: "1.65"
unicode: "f0fe"
-->
<svg
  xmlns="http://www.w3.org/2000/svg"
  width="24"
  height="24"
  viewBox="0 0 24 24"
  fill="none"
  stroke="currentColor"
  stroke-width="2"
  stroke-linecap="round"
  stroke-linejoin="round"
>
  <path d="M8 4h8.722a2 2 0 0 1 1.841 1.22c.958 2.26 1.437 4.52 1.437 6.78a16.35 16.35 0 0 1 -.407 3.609m-.964 3.013l-.066 .158a2 2 0 0 1 -1.841 1.22h-9.444a2 2 0 0 1 -1.841 -1.22c-.958 -2.26 -1.437 -4.52 -1.437 -6.78c0 -2.21 .458 -4.42 1.374 -6.63" />
  <path d="M14 4c.585 2.337 .913 4.674 .985 7.01m-.114 3.86a33.415 33.415 0 0 1 -.871 5.13" />
  <path d="M10 4a34.42 34.42 0 0 0 -.366 1.632m-.506 3.501a32.126 32.126 0 0 0 -.128 2.867c0 2.667 .333 5.333 1 8" />
  <path d="M4.5 16h11.5" />
  <path d="M19.5 8h-7.5m-4 0h-3.5" />
  <path d="M3 3l18 18" />
</svg>

<svg xmlns="http://www.w3.org/2000/svg" width="24" height="24" fill="none" stroke="currentColor" stroke-linecap="round" stroke-linejoin="round" stroke-width="2" viewBox="0 0 24 24"><path d="M8 4h8.722a2 2 0 0 1 1.841 1.22Q20 8.61 20 12a16.4 16.4 0 0 1-.407 3.609m-.964 3.013-.066.158A2 2 0 0 1 16.722 20H7.278a2 2 0 0 1-1.841-1.22Q4 15.39 4 12q0-3.315 1.374-6.63"/><path d="M14 4q.877 3.506.985 7.01m-.114 3.86A33.4 33.4 0 0 1 14 20M10 4a34 34 0 0 0-.366 1.632m-.506 3.501A32 32 0 0 0 9 12q0 4 1 8m-5.5-4H16m3.5-8H12M8 8H4.5M3 3l18 18"/></svg>
